X:1
T:Mark and behold the upright man
T:Mark and behold the upright man (Joseph Key)
C:Joseph Key
Z:p32, Five Anthems, Four
Z:Collects ... Book III.
Z:London: [1785]
%%score [ 1 2 3 ( 4 5 ) ]
L:1/8
M:2/2
K:C
V:1 treble nm="Soprano" snm="S."
V:2 treble nm="Alto" snm="A."
V:3 treble-8 transpose=-12 nm="Tenor" snm="T."
V:4 bass nm="Bass" snm="B."
V:5 bass 
V:1
 G4 G2 G2 | A4 A4 | G4 G4 | G4 z2 A2 | d4 (c2 B2) | (d2 c2) (B2 A2) | B8 |: c4 c2 c2 | c6 d2 | %9
w: But the sal-|va- tion|of the|just Doth|come from _|God _ a- *|bove,|Who in their|trou- ble|
w: Mark and be-|hold the|up- right|man, How|God doth _|him _ in- *|crease;|For the just|man shall|
w: As for trans-|gres- sors,|woe to|them! Des-|troy’d they _|all _ shall _|be;|God will cut|off their|
 B4 A4 | G4 z2 G2 | G6 A2 | d4 c4 | (c2 B2) z2 B2 | (ABAB c2) d2 | G4 G4 | G8 :| %17
w: sends them|aid Of|his mere|grace and|love, _ of|his _ _ _ _ mere|grace and|love.|
w: have at|length Great|joy with|rest and|peace, _ great|joy _ _ _ _ with|rest and|peace.|
w: bud- ding|race And|rich pos-|te- ri-|ty, _ and|rich _ _ _ _ pos-|te- ri-|ty.|
V:2
 E4 E2 (E>D) | C4 D4 | (G2 F2) (E2 D2) | E4 z2 E2 | D4 E4 | D4 D4 | D8 |: E4 E2 E2 | F6 A2 | %9
w: But the sal- *|va- tion|of _ the _|just Doth|come from|God a-|bove,|Who in their|trou- ble|
w: Mark and be- *|hold the|up- * right _|man, How|God doth|him in-|crease;|For the just|man shall|
w: As for trans- *|gres- sors,|woe _ to _|them! Des-|troy’d they|all shall|be;|God will cut|off their|
 G4 (F2 E2) | (E2 D2) z2 D2 | (EFEF G2) (F>G) | A4 G4 | G4 z2 G2 | (FEFG A2) A2 | (G2 F2) (E2 D2) | %16
w: sends them _|aid _ Of|his _ _ _ _ mere _|grace and|love, of|his _ _ _ _ mere|grace _ and _|
w: have at _|length _ Great|joy _ _ _ _ with _|rest and|peace, great|joy _ _ _ _ with|rest _ and _|
w: bud- ding _|race _ And|rich _ _ _ _ pos- *|te- ri-|ty, and|rich _ _ _ _ pos-|te- * ri- *|
 E8 :| %17
w: love.|
w: peace.|
w: ty.|
V:3
 c4 c2 B2 | A4 f4 | (e2 d2) (c2 B2) | c4 z2 c2 | B4 (A2 G2) | (B2 A2) (G2 ^F2) | G8 |: G4 G2 G2 | %8
w: But the sal-|va- tion|of _ the _|just Doth|come from _|God _ a- *|bove,|Who in their|
w: Mark and be-|hold the|up- * right _|man, How|God doth _|him _ in- *|crease;|For the just|
w: As for trans-|gres- sors,|woe _ to _|them! Des-|troy’d they _|all _ shall _|be;|God will cut|
 A6 f2 | e4 (d2 c2) | (c2 B2) z2 G2 | (cdcd e2) c2 | f4 e4 | (e2 d2) z2 G2 | A6 f2 | %15
w: trou- ble|sends them _|aid _ Of|his _ _ _ _ mere|grace and|love, _ of|his mere|
w: man shall|have at _|length _ Great|joy _ _ _ _ with|rest and|peace, _ great|joy with|
w: off their|bud- ding _|race _ And|rich _ _ _ _ pos-|te- ri-|ty, _ and|rich pos-|
 (e2 d2) (c2 B2) | c8 :| %17
w: grace _ and _|love.|
w: rest _ and _|peace.|
w: te- * ri- *|ty.|
V:4
 C,4 (C,>D,) E,2 | F,4 D,4 | (E,2 F,2) G,4 | C,4 z2 A,,2 | B,,4 C,4 | D,4 D,4 | G,,8 |: %7
w: But the _ sal-|va- tion|of _ the|just Doth|come from|God a-|bove,|
w: Mark and _ be-|hold the|up- * right|man, How|God doth|him in-|crease;|
w: As for _ trans-|gres- sors,|woe _ to|them! Des-|troy’d they|all shall|be;|
 C,4 C,2 C,2 | F,6 D,2 | E,4 F,4 | G,4 z2 E,2 | C,6 F,2 | %12
w: Who in their|trou- ble|sends them|aid Of|his mere|
w: For the just|man shall|have at|length Great|joy with|
w: God will cut|off their|bud- ding|race And|rich pos-|
"^Notes:The time signature in the source is retorted time.The alto part is printed in the source in the treble clef, an octave above sounding pitch.Only verse 37 of the text is underlaid in the source: the three subsequent verses have been added editorially." D,4 (E,2 F,2) | %13
w: grace and _|
w: rest and _|
w: te- ri- *|
 G,4 z2 E,2 | F,6 D,2 | (E,2 F,2) G,4 | C,8 :| %17
w: love, of|his mere|grace _ and|love.|
w: peace, great|joy with|rest _ and|peace.|
w: ty, and|rich pos-|te- * ri-|ty.|
V:5
 x8 | x8 | x8 | x8 | x8 | x8 | x8 |: x8 | x8 | x8 | x8 | x8 | x8 | x8 | x8 | x4 (G,2 G,,2) | x8 :| %17

